X: 13187
T: First Slip, The
R: slip jig
M: 9/8
K: Gmajor
|:dBG D3 G2B|dBG GBd gfe|dBG D3 G2B|cAF FGA cBA:|
|:GBd dBd d2B|GB/c/d dBd gdB|GBd dBd ded|cAG FGA cBA:|

